remix/Map/map-pin-5-fill.svg

<svg viewBox="0 0 24 24" fill="currentColor" xmlns="http://www.w3.org/2000/svg"><path d="M17.6569 15.6569L12 21.3137L6.34315 15.6569C3.21895 12.5327 3.21895 7.46734 6.34315 4.34315C9.46734 1.21895 14.5327 1.21895 17.6569 4.34315C20.781 7.46734 20.781 12.5327 17.6569 15.6569ZM5 22H19V24H5V22Z"/></svg>

<svg viewBox="0 0 24 24" xmlns="http://www.w3.org/2000/svg"><path fill="none" d="M0 0h24v24H0Z"/><path d="M17.65 15.657l-5.66 5.65 -5.66-5.657v0c-3.13-3.13-3.13-8.19 0-11.32 3.12-3.13 8.18-3.13 11.31 0 3.12 3.12 3.12 8.18 0 11.31ZM4.99 22h14v2h-14v-2Z"/></svg>
